X: 091
Q: "slow"
M: C
L: 1/8
K: G
V: 1
E2G2 {A}TG3B | A>BTA>G {F}TE3D |\
{D}E2G2 {A}G>AB>c | (A4{GA} G3) :|
|: G |\
{A}B2d2 Td3e |=f2g>=f Te3d |
e2g2 {e}d2Te>d | d2Jg2 {B}TA3G |\
{F}E2G2 G>AB>c | ({B}A4{GA} G3 :|
V: 2 clef=bass middle=d
g |\
cd"6"ec "6"BABG | d2z"6"B c2"6 5;4 3"g2 | cd"6"ec "6"B"6"FGc | "4"d2"3"D2 G3 :|\
|: z |\
ga"6"b"6"f ga"6"bc' |
"6"b3g d'2z2 | ga"6"b"6"f ga"6"bc' | "b"d'2"6"b2 c'2"6 5;4 3"g2 |\
cd"6"ec "6"B2"7"F2 | GA"6"BG d2z"6"B |
cd"6"ec "6"B"6"fgc | "4"d2"3"D2 G3 :|

